assets/sonr-icons/file-music.svg

<svg xmlns="http://www.w3.org/2000/svg" width="24" height="24" fill="none" viewBox="0 0 24 24"><path fill="#000" d="M14.691 2.111C15.099 2.209 15.49 2.371 15.848 2.59C16.254 2.839 16.593 3.178 17.041 3.627L18.373 4.959C18.822 5.408 19.161 5.747 19.41 6.152C19.629 6.51 19.791 6.9 19.889 7.309C20 7.772 20 8.252 19.999 8.886V16.241C19.999 17.046 19.999 17.71 19.955 18.252C19.909 18.814 19.81 19.33 19.563 19.816C19.18 20.569 18.568 21.18 17.815 21.564C17.33 21.812 16.813 21.91 16.251 21.956C15.709 22 15.046 22 14.24 22H9.75701C8.95201 22 8.28801 22 7.74601 21.956C7.18401 21.91 6.66701 21.811 6.18101 21.564C5.42801 21.181 4.81701 20.569 4.43301 19.816C4.18501 19.331 4.08701 18.814 4.04101 18.252C3.99701 17.71 3.99701 17.047 3.99701 16.241V7.759C3.99701 6.954 3.99701 6.29 4.04101 5.748C4.08701 5.186 4.18601 4.669 4.43301 4.183C4.81601 3.43 5.42801 2.819 6.18101 2.435C6.66601 2.187 7.18301 2.089 7.74601 2.044C8.28701 2 8.95101 2 9.75701 2H13.112C13.747 2 14.226 1.999 14.689 2.11L14.691 2.111ZM13 4H9.80001C8.94401 4 8.36201 4.001 7.91101 4.037C7.47201 4.073 7.24901 4.138 7.09201 4.218C6.71501 4.41 6.40901 4.716 6.21801 5.092C6.13801 5.249 6.07301 5.472 6.03701 5.911C6.00001 6.361 6.00001 6.943 6.00001 7.8V16.2C6.00001 17.057 6.00101 17.638 6.03701 18.089C6.07301 18.528 6.13801 18.751 6.21801 18.908C6.41001 19.285 6.71601 19.591 7.09201 19.782C7.24901 19.862 7.47201 19.927 7.91101 19.963C8.36101 20 8.94401 20 9.80001 20H14.2C15.056 20 15.639 19.999 16.089 19.963C16.528 19.927 16.751 19.862 16.908 19.782C17.285 19.59 17.591 19.284 17.782 18.908C17.861 18.751 17.927 18.528 17.963 18.089C18 17.639 18.001 17.056 18.001 16.2V9H16.001C14.344 9 13.001 7.657 13.001 6V4H13ZM17.56 7C17.44 6.858 17.248 6.662 16.887 6.301L15.699 5.113C15.338 4.752 15.143 4.56 15 4.44V6C15 6.552 15.448 7 16 7H17.56Z"/><path fill="#000" d="M11 11.002C11 10.312 11.682 9.82996 12.333 10.059L14.333 10.764C14.733 10.905 15.001 11.283 15.001 11.708V12.588C15.001 13.278 14.319 13.76 13.668 13.531L13 13.296V16.001C13 17.106 12.104 18.001 11 18.001C9.896 18.001 9 17.106 9 16.001C9 14.896 9.896 14.001 11 14.001V11.003V11.002Z"/></svg>

<svg xmlns="http://www.w3.org/2000/svg" width="24" height="24" fill="none"><path fill="currentColor" d="M14.691 2.111c.408.098.799.26 1.157.479.406.249.745.588 1.193 1.037l1.332 1.332c.449.449.788.788 1.037 1.193.219.358.381.748.479 1.157.111.463.111.943.11 1.577v7.355c0 .805 0 1.469-.044 2.011-.046.562-.145 1.078-.392 1.564a4 4 0 0 1-1.748 1.748c-.485.248-1.002.346-1.564.392-.542.044-1.205.044-2.011.044H9.757c-.805 0-1.469 0-2.011-.044-.562-.046-1.079-.145-1.565-.392a4 4 0 0 1-1.748-1.748c-.248-.485-.346-1.002-.392-1.564-.044-.542-.044-1.205-.044-2.011V7.759c0-.805 0-1.469.044-2.011.046-.562.145-1.079.392-1.565a4 4 0 0 1 1.748-1.748c.485-.248 1.002-.346 1.565-.391C8.287 2 8.951 2 9.757 2h3.355c.635 0 1.114-.001 1.577.11zM13 4H9.8c-.856 0-1.438.001-1.889.037-.439.036-.662.101-.819.181a2 2 0 0 0-.874.874c-.08.157-.145.38-.181.819C6 6.361 6 6.943 6 7.8v8.4c0 .857.001 1.438.037 1.889.036.439.101.662.181.819.192.377.498.683.874.874.157.08.38.145.819.181C8.361 20 8.944 20 9.8 20h4.4c.856 0 1.439-.001 1.889-.037.439-.036.662-.101.819-.181.377-.192.683-.498.874-.874.079-.157.145-.38.181-.819.037-.45.038-1.033.038-1.889V9h-2a3 3 0 0 1-3-3zm4.56 3c-.12-.142-.312-.338-.673-.699l-1.188-1.188A13 13 0 0 0 15 4.44V6a1 1 0 0 0 1 1z"/><path fill="currentColor" d="M11 11.002a1 1 0 0 1 1.333-.943l2 .705a1 1 0 0 1 .668.944v.88a1 1 0 0 1-1.333.943L13 13.296v2.705a2 2 0 1 1-2-2z"/></svg>
